X: 9
T: John Tallis Canon, The
M: 6/8
L: 1/8
Q: 120
R: English Country dance
K: G
||:G2 B d2 B |cde d2 c| B2d B2 G| ABG FED|!
G2 B d2 B| cde def| g2 d B2 G| ABG FED:||!
:Bdg gdB| cdB A2 d| g2 b bag| eag fed| !
Bdg gdB| cdB A2 d| g2 d BAG| ABG FED:||
